X: 2
T: The Boys Of Bluehill
R: hornpipe
M: 4/4
L: 1/8
K: Dmaj
||A (3EFA|BA FA DE FA| BA Bd e2 de |fa af eg fe|de fd B2 dc|| BA FA DA FA| BA Bd e2 de |fa af eg fe|d2 d2 d2 :||: fg| af df a2 gf | gf ga b2 ag |fa af eg fe |de fd Bc dc|| BA FA DE FA| BA Bd e2 de |fa af eg fe|d2 d2 d2 :|


Tune 651	Setting 13682

